X: 313
T: Hart Hall
N: Pub: J. Walsh, London, 1748
S: 2: CCD2  http://petrucci.mus.auth.gr/imglnks/usimg/6/61/IMSLP173105-PMLP149069-caledoniancountr00ingl.pdf p.92 #352
S: 4: ACMV  http://archive.org/details/acompositemusicv01rugg p.4:92 #352
Z: 2012 John Chambers <jc:trillian.mit.edu>
N: The 2nd part has a begin-repeat but no end-repeat.
M: 6/4
L: 1/4
K: Bb
% - - - - - - - - - - - - - - - - - - - - - - - - -
V: 1
F |\
B2B Bbg | fdB A2B | cde dcB | cAF F2F |\
B2B Bbg | fdB G2F | Ged cBA | BFD B,2 :|
|: F |\
B2B B>cB/_A/ | GEE GBe | c2c c>dc/B/ | AFF Acf |\
.g(ec) .f(dB) | .e(cB) A>GF | Ged cBA | BFD B,2 |]
% - - - - - - - - - - - - - - - - - - - - - - - - -
V: 2 clef=bass middle=d
z |\
B3 d2e | d3 f3 | a3 b3 | a3 f3 |\
B3 d2e | d3 B3 | e3 f3 | B2B B2 :|
|: z |\
d3 B3 | e3 z3 | =e3 c3 | f3 z3 |\
e3 d3 | e3 f2d | e3 f3 | B2B B2 |]
% - - - - - - - - - - - - - - - - - - - - - - - - -
%%begintext align
%% The 1st Man cast off and turn the 3d Wo. (his Partner turning the 2d Man at
%% the same time) then his Partner, then Set and cast up to the top and Set and turn _
%% Then the 1st Man clap hands with the 2d Man, and the 1st Wo. with the 2d Wo. at the same
%% time, then with their Partners and turn them, then the 1st and 2d Man clap hands
%% with their Partners, then with each other and turn into the 2d Cu. Place.
%%endtext

%%sep 1 1 500
%%sep 1 1 500
